svg/fluentui-system-icons/ic_fluent_call_warning_16_regular.svg

<svg width="16" height="16" viewBox="0 0 16 16" fill="none" xmlns="http://www.w3.org/2000/svg">
<path d="M12.3736 0.572945L15.8811 6.88622C16.1588 7.38612 15.7973 8.00045 15.2255 8.00046L7.76867 8.00055C7.19661 8.00056 6.83514 7.38584 7.11325 6.88593L10.6256 0.572438C11.0069 -0.112914 11.9928 -0.11263 12.3736 0.572945ZM11.4932 7.00072C11.7693 7.00072 11.9932 6.77686 11.9932 6.50072C11.9932 6.22457 11.7693 6.00072 11.4932 6.00072C11.217 6.00072 10.9932 6.22457 10.9932 6.50072C10.9932 6.77686 11.217 7.00072 11.4932 7.00072ZM10.9932 2.00067V4.50069C10.9932 4.77683 11.217 5.00069 11.4932 5.00069C11.7693 5.00069 11.9932 4.77683 11.9932 4.50069V2.00067C11.9932 1.72453 11.7693 1.50067 11.4932 1.50067C11.217 1.50067 10.9932 1.72452 10.9932 2.00067ZM4.76512 2.45646C3.40963 2.87101 2.52302 4.00217 2.71358 5.25846C2.89789 6.47347 3.32481 8.02274 4.26776 9.64371C5.20852 11.2609 6.33466 12.4035 7.29155 13.1724C8.28413 13.97 9.71011 13.7719 10.7472 12.805C11.1263 12.4515 11.1651 11.8641 10.8356 11.464L10.0442 10.5025C9.78505 10.1878 9.36079 10.0618 8.9719 10.1842L7.29891 10.7108C7.13138 10.7635 6.94847 10.7245 6.81706 10.608L6.77693 10.5713C6.75349 10.5496 6.72052 10.5184 6.67981 10.4785C6.59848 10.3988 6.48575 10.284 6.35605 10.1393C6.09803 9.85166 5.76599 9.43878 5.48099 8.94514C5.19599 8.45151 5.00445 7.95752 4.88432 7.59022C4.82393 7.40559 4.7808 7.25053 4.75247 7.14025C4.73829 7.08506 4.72778 7.04092 4.72064 7.00973L4.70915 6.9575C4.67394 6.78544 4.73141 6.60667 4.86084 6.48795L6.15336 5.30238C6.4538 5.0268 6.55687 4.59641 6.41384 4.21462L5.97927 3.05465C5.79613 2.56581 5.26431 2.30379 4.76512 2.45646ZM6.82932 6.03932L5.75663 7.02325C5.77746 7.09694 5.80336 7.18332 5.83477 7.27936C5.94098 7.6041 6.10703 8.02947 6.34702 8.44514C6.58701 8.86082 6.87237 9.21731 7.1005 9.47166C7.16796 9.54689 7.22982 9.61251 7.28322 9.66739L8.67167 9.23038C9.44945 8.98557 10.298 9.23745 10.8162 9.86697L11.6077 10.8284C12.2729 11.6365 12.1947 12.8226 11.4292 13.5364C10.1393 14.739 8.15263 15.1471 6.66518 13.9519C5.63026 13.1204 4.41625 11.8877 3.40338 10.1465C2.38638 8.39828 1.92456 6.72471 1.72489 5.40843C1.43899 3.52363 2.79003 2.01478 4.47266 1.50018C5.47711 1.19299 6.54721 1.72021 6.91571 2.70382L7.35028 3.8638C7.63634 4.62737 7.43021 5.48815 6.82932 6.03932Z" fill="#212121"/>
</svg>

<svg xmlns="http://www.w3.org/2000/svg" width="16" height="16"><path d="m12.374.573 3.507 6.313A.75.75 0 0 1 15.226 8H7.769a.75.75 0 0 1-.656-1.114L10.626.572a1 1 0 0 1 1.748 0ZM11.494 7a.5.5 0 1 0 0-1 .5.5 0 0 0 0 1Zm-.5-5v2.5a.5.5 0 1 0 1 0V2a.5.5 0 0 0-1 0Zm-6.229.455C3.41 2.87 2.523 4.001 2.714 5.257a12.432 12.432 0 0 0 1.554 4.386 12.733 12.733 0 0 0 3.024 3.528c.992.798 2.418.6 3.455-.367a.98.98 0 0 0 .089-1.341l-.792-.962a1 1 0 0 0-1.072-.318l-1.673.527a.5.5 0 0 1-.482-.103l-.04-.037a7.29 7.29 0 0 1-.42-.432 7.161 7.161 0 0 1-.876-1.194 7.265 7.265 0 0 1-.76-1.935l-.012-.053a.501.501 0 0 1 .152-.47l1.292-1.185a1 1 0 0 0 .26-1.087l-.434-1.16a.988.988 0 0 0-1.214-.599ZM6.83 6.04l-1.072.984a6.613 6.613 0 0 0 .59 1.422 6.267 6.267 0 0 0 .936 1.222l1.389-.437a2 2 0 0 1 2.144.637l.792.961a1.981 1.981 0 0 1-.179 2.708c-1.29 1.203-3.276 1.611-4.764.416a13.73 13.73 0 0 1-3.262-3.806 13.431 13.431 0 0 1-1.678-4.738C1.439 3.524 2.79 2.015 4.473 1.5a1.988 1.988 0 0 1 2.443 1.204l.434 1.16a2 2 0 0 1-.52 2.175Z"/></svg>
